build/images/main/callout-up.svg

<svg width="265" height="75" viewBox="0 0 265 75" fill="none" xmlns="http://www.w3.org/2000/svg">
<mask id="path-1-inside-1" fill="white">
<path fill-rule="evenodd" clip-rule="evenodd" d="M37.4853 13.4853C35.2349 15.7357 32.1826 17 29 17H12C5.37258 17 0 22.3726 0 29V63C0 69.6274 5.37258 75 12 75H253C259.627 75 265 69.6274 265 63V29C265 22.3726 259.627 17 253 17H76.2549C73.0723 17 70.02 15.7357 67.7696 13.4853L55.4559 1.17157C53.8938 -0.390525 51.3611 -0.390525 49.799 1.17157L37.4853 13.4853Z"/>
</mask>
<path fill-rule="evenodd" clip-rule="evenodd" d="M37.4853 13.4853C35.2349 15.7357 32.1826 17 29 17H12C5.37258 17 0 22.3726 0 29V63C0 69.6274 5.37258 75 12 75H253C259.627 75 265 69.6274 265 63V29C265 22.3726 259.627 17 253 17H76.2549C73.0723 17 70.02 15.7357 67.7696 13.4853L55.4559 1.17157C53.8938 -0.390525 51.3611 -0.390525 49.799 1.17157L37.4853 13.4853Z" fill="#FEC830" fill-opacity="0.2"/>
<path d="M55.4559 1.17157L55.8094 0.818019V0.818019L55.4559 1.17157ZM49.799 1.17157L49.4455 0.818019V0.818019L49.799 1.17157ZM67.7696 13.4853L67.4161 13.8388L67.7696 13.4853ZM37.4853 13.4853L37.8389 13.8388L37.4853 13.4853ZM12 16.5C11.3772 16.5 10.7647 16.5456 10.1658 16.6337L10.3113 17.623C10.8622 17.542 11.426 17.5 12 17.5V16.5ZM4.55314 18.9594C3.56676 19.6922 2.69215 20.5668 1.95943 21.5531L2.76217 22.1495C3.43656 21.2416 4.24162 20.4366 5.14946 19.7622L4.55314 18.9594ZM-0.366315 27.1658C-0.454412 27.7647 -0.5 28.3772 -0.5 29H0.5C0.5 28.4261 0.542007 27.8622 0.623039 27.3113L-0.366315 27.1658ZM-0.5 29V30.5938H0.5V29H-0.5ZM-0.5 35.9062V39.0938H0.5V35.9062H-0.5ZM-0.5 44.4062V47.5938H0.5V44.4062H-0.5ZM-0.5 52.9062V56.0938H0.5V52.9062H-0.5ZM-0.5 61.4062V63H0.5V61.4062H-0.5ZM-0.5 63C-0.5 63.6228 -0.454412 64.2353 -0.366315 64.8342L0.623039 64.6887C0.542007 64.1378 0.5 63.574 0.5 63H-0.5ZM1.95943 70.4469C2.69215 71.4332 3.56677 72.3078 4.55314 73.0406L5.14946 72.2378C4.24162 71.5634 3.43656 70.7584 2.76218 69.8505L1.95943 70.4469ZM10.1658 75.3663C10.7647 75.4544 11.3772 75.5 12 75.5V74.5C11.4261 74.5 10.8622 74.458 10.3113 74.377L10.1658 75.3663ZM12 75.5H13.5063V74.5H12V75.5ZM18.5271 75.5H21.5396V74.5H18.5271V75.5ZM26.5604 75.5H29.5729V74.5H26.5604V75.5ZM34.5938 75.5H37.6063V74.5H34.5938V75.5ZM42.6271 75.5H45.6396V74.5H42.6271V75.5ZM50.6604 75.5H53.6729V74.5H50.6604V75.5ZM58.6938 75.5H61.7063V74.5H58.6938V75.5ZM66.7271 75.5H69.7396V74.5H66.7271V75.5ZM74.7604 75.5H77.7729V74.5H74.7604V75.5ZM82.7938 75.5H85.8063V74.5H82.7938V75.5ZM90.8271 75.5H93.8396V74.5H90.8271V75.5ZM98.8604 75.5H101.873V74.5H98.8604V75.5ZM106.894 75.5H109.906V74.5H106.894V75.5ZM114.927 75.5H117.94V74.5H114.927V75.5ZM122.96 75.5H125.973V74.5H122.96V75.5ZM130.994 75.5H134.006V74.5H130.994V75.5ZM139.027 75.5H142.04V74.5H139.027V75.5ZM147.06 75.5H150.073V74.5H147.06V75.5ZM155.094 75.5H158.106V74.5H155.094V75.5ZM163.127 75.5H166.14V74.5H163.127V75.5ZM171.16 75.5H174.173V74.5H171.16V75.5ZM179.194 75.5H182.206V74.5H179.194V75.5ZM187.227 75.5H190.24V74.5H187.227V75.5ZM195.26 75.5H198.273V74.5H195.26V75.5ZM203.294 75.5H206.306V74.5H203.294V75.5ZM211.327 75.5H214.34V74.5H211.327V75.5ZM219.36 75.5H222.373V74.5H219.36V75.5ZM227.394 75.5H230.406V74.5H227.394V75.5ZM235.427 75.5H238.439V74.5H235.427V75.5ZM243.46 75.5H246.473V74.5H243.46V75.5ZM251.494 75.5H253V74.5H251.494V75.5ZM253 75.5C253.623 75.5 254.235 75.4544 254.834 75.3663L254.689 74.377C254.138 74.458 253.574 74.5 253 74.5V75.5ZM260.447 73.0406C261.433 72.3078 262.308 71.4332 263.041 70.4469L262.238 69.8505C261.563 70.7584 260.758 71.5634 259.851 72.2378L260.447 73.0406ZM265.366 64.8342C265.454 64.2353 265.5 63.6228 265.5 63H264.5C264.5 63.574 264.458 64.1378 264.377 64.6887L265.366 64.8342ZM265.5 63V61.4062H264.5V63H265.5ZM265.5 56.0938V52.9062H264.5V56.0938H265.5ZM265.5 47.5938V44.4062H264.5V47.5938H265.5ZM265.5 39.0938V35.9062H264.5V39.0938H265.5ZM265.5 30.5938V29H264.5V30.5938H265.5ZM265.5 29C265.5 28.3772 265.454 27.7647 265.366 27.1658L264.377 27.3113C264.458 27.8622 264.5 28.4261 264.5 29H265.5ZM263.041 21.5531C262.308 20.5668 261.433 19.6922 260.447 18.9594L259.851 19.7622C260.758 20.4366 261.563 21.2416 262.238 22.1495L263.041 21.5531ZM254.834 16.6337C254.235 16.5456 253.623 16.5 253 16.5V17.5C253.574 17.5 254.138 17.542 254.689 17.623L254.834 16.6337ZM253 16.5H251.494V17.5H253V16.5ZM246.472 16.5H243.46V17.5H246.472V16.5ZM238.439 16.5H235.426V17.5H238.439V16.5ZM230.405 16.5H227.392V17.5H230.405V16.5ZM222.371 16.5H219.358V17.5H222.371V16.5ZM214.337 16.5H211.324V17.5H214.337V16.5ZM206.303 16.5H203.29V17.5H206.303V16.5ZM198.269 16.5H195.257V17.5H198.269V16.5ZM190.235 16.5H187.223V17.5H190.235V16.5ZM182.202 16.5H179.189V17.5H182.202V16.5ZM174.168 16.5H171.155V17.5H174.168V16.5ZM166.134 16.5H163.121V17.5H166.134V16.5ZM158.1 16.5H155.087V17.5H158.1V16.5ZM150.066 16.5H147.053V17.5H150.066V16.5ZM142.032 16.5H139.019V17.5H142.032V16.5ZM133.998 16.5H130.986V17.5H133.998V16.5ZM125.964 16.5H122.952V17.5H125.964V16.5ZM117.931 16.5H114.918V17.5H117.931V16.5ZM109.897 16.5H106.884V17.5H109.897V16.5ZM101.863 16.5H98.8501V17.5H101.863V16.5ZM93.829 16.5H90.8163V17.5H93.829V16.5ZM85.7951 16.5H82.7824V17.5H85.7951V16.5ZM77.7613 16.5H76.2549V17.5H77.7613V16.5ZM76.2549 16.5C75.6867 16.5 75.1228 16.4579 74.5675 16.3756L74.4207 17.3648C75.0244 17.4543 75.6373 17.5 76.2549 17.5V16.5ZM69.4043 14.2369C68.9534 13.9025 68.525 13.5335 68.1232 13.1317L67.4161 13.8388C67.8527 14.2755 68.3184 14.6766 68.8086 15.0401L69.4043 14.2369ZM68.1232 13.1317L66.9688 11.9773L66.2616 12.6844L67.4161 13.8388L68.1232 13.1317ZM63.1207 8.12928L60.8119 5.82046L60.1048 6.52757L62.4136 8.83639L63.1207 8.12928ZM56.9639 1.97243L55.8094 0.818019L55.1023 1.52513L56.2568 2.67954L56.9639 1.97243ZM55.8094 0.818019C55.4887 0.497265 55.1308 0.234554 54.7493 0.0304597L54.2776 0.912219C54.5735 1.07048 54.8518 1.27459 55.1023 1.52513L55.8094 0.818019ZM50.5056 0.0304595C50.1241 0.234553 49.7662 0.497265 49.4455 0.818019L50.1526 1.52513C50.4031 1.27459 50.6815 1.07048 50.9773 0.912219L50.5056 0.0304595ZM49.4455 0.818019L48.2911 1.97243L48.9982 2.67954L50.1526 1.52513L49.4455 0.818019ZM44.443 5.82046L42.1342 8.12928L42.8413 8.83639L45.1502 6.52757L44.443 5.82046ZM38.2862 11.9773L37.1318 13.1317L37.8389 13.8388L38.9933 12.6844L38.2862 11.9773ZM37.1318 13.1317C36.73 13.5335 36.3015 13.9025 35.8506 14.2369L36.4463 15.0401C36.9365 14.6766 37.4022 14.2755 37.8389 13.8388L37.1318 13.1317ZM30.6875 16.3756C30.1321 16.4579 29.5683 16.5 29 16.5V17.5C29.6176 17.5 30.2305 17.4543 30.8342 17.3648L30.6875 16.3756ZM29 16.5H27.4063V17.5H29V16.5ZM22.0938 16.5H18.9063V17.5H22.0938V16.5ZM13.5938 16.5H12V17.5H13.5938V16.5ZM55.4559 1.17157L56.163 0.464466V0.464465L55.4559 1.17157ZM49.799 1.17157L49.0919 0.464465V0.464466L49.799 1.17157ZM67.7696 13.4853L67.0625 14.1924L67.7696 13.4853ZM37.4853 13.4853L38.1924 14.1924L37.4853 13.4853ZM12 16C11.3528 16 10.716 16.0474 10.093 16.139L10.3841 18.1177C10.911 18.0402 11.4505 18 12 18V16ZM4.25498 18.5581C3.22934 19.32 2.31995 20.2293 1.55805 21.255L3.16355 22.4476C3.80876 21.5791 4.57905 20.8088 5.44762 20.1635L4.25498 18.5581ZM-0.860992 27.093C-0.952621 27.716 -1 28.3528 -1 29H1C1 28.4505 1.04022 27.911 1.11772 27.3841L-0.860992 27.093ZM-1 29V30.5938H1V29H-1ZM-1 35.9062V39.0938H1V35.9062H-1ZM-1 44.4062V47.5938H1V44.4062H-1ZM-1 52.9062V56.0938H1V52.9062H-1ZM-1 61.4062V63H1V61.4062H-1ZM-1 63C-1 63.6472 -0.952621 64.284 -0.860992 64.907L1.11772 64.6159C1.04022 64.089 1 63.5495 1 63H-1ZM1.55806 70.745C2.31995 71.7707 3.22934 72.6801 4.25498 73.4419L5.44762 71.8364C4.57905 71.1912 3.80876 70.421 3.16355 69.5524L1.55806 70.745ZM10.093 75.861C10.716 75.9526 11.3528 76 12 76V74C11.4505 74 10.911 73.9598 10.3841 73.8823L10.093 75.861ZM12 76H13.5063V74H12V76ZM18.5271 76H21.5396V74H18.5271V76ZM26.5604 76H29.5729V74H26.5604V76ZM34.5938 76H37.6063V74H34.5938V76ZM42.6271 76H45.6396V74H42.6271V76ZM50.6604 76H53.6729V74H50.6604V76ZM58.6938 76H61.7063V74H58.6938V76ZM66.7271 76H69.7396V74H66.7271V76ZM74.7604 76H77.7729V74H74.7604V76ZM82.7938 76H85.8063V74H82.7938V76ZM90.8271 76H93.8396V74H90.8271V76ZM98.8604 76H101.873V74H98.8604V76ZM106.894 76H109.906V74H106.894V76ZM114.927 76H117.94V74H114.927V76ZM122.96 76H125.973V74H122.96V76ZM130.994 76H134.006V74H130.994V76ZM139.027 76H142.04V74H139.027V76ZM147.06 76H150.073V74H147.06V76ZM155.094 76H158.106V74H155.094V76ZM163.127 76H166.14V74H163.127V76ZM171.16 76H174.173V74H171.16V76ZM179.194 76H182.206V74H179.194V76ZM187.227 76H190.24V74H187.227V76ZM195.26 76H198.273V74H195.26V76ZM203.294 76H206.306V74H203.294V76ZM211.327 76H214.34V74H211.327V76ZM219.36 76H222.373V74H219.36V76ZM227.394 76H230.406V74H227.394V76ZM235.427 76H238.439V74H235.427V76ZM243.46 76H246.473V74H243.46V76ZM251.494 76H253V74H251.494V76ZM253 76C253.647 76 254.284 75.9526 254.907 75.861L254.616 73.8823C254.089 73.9598 253.55 74 253 74V76ZM260.745 73.4419C261.771 72.68 262.68 71.7707 263.442 70.745L261.836 69.5524C261.191 70.421 260.421 71.1912 259.552 71.8364L260.745 73.4419ZM265.861 64.907C265.953 64.284 266 63.6472 266 63H264C264 63.5495 263.96 64.089 263.882 64.6159L265.861 64.907ZM266 63V61.4062H264V63H266ZM266 56.0938V52.9062H264V56.0938H266ZM266 47.5938V44.4062H264V47.5938H266ZM266 39.0938V35.9062H264V39.0938H266ZM266 30.5938V29H264V30.5938H266ZM266 29C266 28.3528 265.953 27.716 265.861 27.093L263.882 27.3841C263.96 27.911 264 28.4505 264 29H266ZM263.442 21.255C262.68 20.2293 261.771 19.32 260.745 18.5581L259.552 20.1636C260.421 20.8088 261.191 21.5791 261.836 22.4476L263.442 21.255ZM254.907 16.139C254.284 16.0474 253.647 16 253 16V18C253.55 18 254.089 18.0402 254.616 18.1177L254.907 16.139ZM253 16H251.494V18H253V16ZM246.472 16H243.46V18H246.472V16ZM238.439 16H235.426V18H238.439V16ZM230.405 16H227.392V18H230.405V16ZM222.371 16H219.358V18H222.371V16ZM214.337 16H211.324V18H214.337V16ZM206.303 16H203.29V18H206.303V16ZM198.269 16H195.257V18H198.269V16ZM190.235 16H187.223V18H190.235V16ZM182.202 16H179.189V18H182.202V16ZM174.168 16H171.155V18H174.168V16ZM166.134 16H163.121V18H166.134V16ZM158.1 16H155.087V18H158.1V16ZM150.066 16H147.053V18H150.066V16ZM142.032 16H139.019V18H142.032V16ZM133.998 16H130.986V18H133.998V16ZM125.964 16H122.952V18H125.964V16ZM117.931 16H114.918V18H117.931V16ZM109.897 16H106.884V18H109.897V16ZM101.863 16H98.8501V18H101.863V16ZM93.829 16H90.8163V18H93.829V16ZM85.7951 16H82.7824V18H85.7951V16ZM77.7613 16H76.2549V18H77.7613V16ZM76.2549 16C75.7113 16 75.172 15.9598 74.6408 15.881L74.3474 17.8593C74.9752 17.9525 75.6126 18 76.2549 18V16ZM69.7022 13.8353C69.2709 13.5154 68.8611 13.1625 68.4767 12.7782L67.0625 14.1924C67.5166 14.6465 68.001 15.0636 68.5108 15.4417L69.7022 13.8353ZM68.4767 12.7782L67.3223 11.6238L65.9081 13.038L67.0625 14.1924L68.4767 12.7782ZM63.4743 7.77573L61.1654 5.46691L59.7512 6.88112L62.0601 9.18994L63.4743 7.77573ZM57.3174 1.61888L56.163 0.464466L54.7488 1.87868L55.9032 3.03309L57.3174 1.61888ZM56.163 0.464465C55.8071 0.108601 55.4095 -0.183411 54.9852 -0.41042L54.0418 1.3531C54.2948 1.48845 54.5334 1.66326 54.7488 1.87868L56.163 0.464465ZM50.2698 -0.41042C49.8454 -0.183411 49.4478 0.1086 49.0919 0.464465L50.5061 1.87868C50.7216 1.66326 50.9602 1.48845 51.2132 1.3531L50.2698 -0.41042ZM49.0919 0.464466L47.9375 1.61888L49.3517 3.03309L50.5061 1.87868L49.0919 0.464466ZM44.0895 5.46691L41.7807 7.77573L43.1949 9.18994L45.5037 6.88112L44.0895 5.46691ZM37.9326 11.6238L36.7782 12.7782L38.1924 14.1924L39.3468 13.038L37.9326 11.6238ZM36.7782 12.7782C36.3939 13.1625 35.9841 13.5154 35.5528 13.8353L36.7442 15.4417C37.254 15.0636 37.7383 14.6465 38.1924 14.1924L36.7782 12.7782ZM30.6141 15.881C30.0829 15.9598 29.5436 16 29 16V18C29.6423 18 30.2797 17.9525 30.9075 17.8593L30.6141 15.881ZM29 16H27.4063V18H29V16ZM22.0938 16H18.9063V18H22.0938V16ZM13.5938 16H12V18H13.5938V16Z" fill="#FEC830" mask="url(#path-1-inside-1)"/>
</svg>

<svg width="265" height="75" fill="none" xmlns="http://www.w3.org/2000/svg"><mask id="path-1-inside-1" fill="#fff"><path fill-rule="evenodd" clip-rule="evenodd" d="M37.485 13.485A12 12 0 0129 17H12C5.373 17 0 22.373 0 29v34c0 6.627 5.373 12 12 12h241c6.627 0 12-5.373 12-12V29c0-6.627-5.373-12-12-12H76.255a12 12 0 01-8.485-3.515L55.456 1.172a4 4 0 00-5.657 0L37.485 13.485z"/></mask><path fill-rule="evenodd" clip-rule="evenodd" d="M37.485 13.485A12 12 0 0129 17H12C5.373 17 0 22.373 0 29v34c0 6.627 5.373 12 12 12h241c6.627 0 12-5.373 12-12V29c0-6.627-5.373-12-12-12H76.255a12 12 0 01-8.485-3.515L55.456 1.172a4 4 0 00-5.657 0L37.485 13.485z" fill="#FEC830" fill-opacity=".2"/><path d="M55.456 1.172l.353-.354-.353.354zm-5.657 0l-.353-.354.353.354zm17.97 12.313l-.353.354.354-.354zm-30.284 0l.354.354-.354-.354zM12 16.5c-.623 0-1.235.046-1.834.134l.145.989A11.608 11.608 0 0112 17.5v-1zm-7.447 2.46a12.573 12.573 0 00-2.594 2.593l.803.596a11.569 11.569 0 012.387-2.387l-.596-.803zm-4.92 8.206A12.598 12.598 0 00-.5 29h1c0-.574.042-1.138.123-1.689l-.99-.145zM-.5 29v1.594h1V29h-1zm0 6.906v3.188h1v-3.188h-1zm0 8.5v3.188h1v-3.188h-1zm0 8.5v3.188h1v-3.188h-1zm0 8.5V63h1v-1.594h-1zM-.5 63c0 .623.046 1.235.134 1.834l.989-.145A11.599 11.599 0 01.5 63h-1zm2.46 7.447a12.6 12.6 0 002.593 2.594l.596-.803a11.569 11.569 0 01-2.387-2.388l-.803.597zm8.206 4.92A12.75 12.75 0 0012 75.5v-1c-.574 0-1.138-.042-1.689-.123l-.145.99zM12 75.5h1.506v-1H12v1zm6.527 0h3.013v-1h-3.013v1zm8.033 0h3.013v-1H26.56v1zm8.034 0h3.012v-1h-3.012v1zm8.033 0h3.013v-1h-3.013v1zm8.033 0h3.013v-1H50.66v1zm8.034 0h3.012v-1h-3.012v1zm8.033 0h3.013v-1h-3.013v1zm8.033 0h3.013v-1H74.76v1zm8.034 0h3.012v-1h-3.012v1zm8.033 0h3.013v-1h-3.013v1zm8.033 0h3.013v-1H98.86v1zm8.034 0h3.012v-1h-3.012v1zm8.033 0h3.013v-1h-3.013v1zm8.033 0h3.013v-1h-3.013v1zm8.034 0h3.012v-1h-3.012v1zm8.033 0h3.013v-1h-3.013v1zm8.033 0h3.013v-1h-3.013v1zm8.034 0h3.012v-1h-3.012v1zm8.033 0h3.013v-1h-3.013v1zm8.033 0h3.013v-1h-3.013v1zm8.034 0h3.012v-1h-3.012v1zm8.033 0h3.013v-1h-3.013v1zm8.033 0h3.013v-1h-3.013v1zm8.034 0h3.012v-1h-3.012v1zm8.033 0h3.013v-1h-3.013v1zm8.033 0h3.013v-1h-3.013v1zm8.034 0h3.012v-1h-3.012v1zm8.033 0h3.012v-1h-3.012v1zm8.033 0h3.013v-1h-3.013v1zm8.034 0H253v-1h-1.506v1zm1.506 0c.623 0 1.235-.046 1.834-.134l-.145-.989c-.551.081-1.115.123-1.689.123v1zm7.447-2.46a12.59 12.59 0 002.594-2.593l-.803-.597a11.603 11.603 0 01-2.387 2.388l.596.803zm4.919-8.206c.088-.599.134-1.211.134-1.834h-1c0 .574-.042 1.138-.123 1.689l.989.145zM265.5 63v-1.594h-1V63h1zm0-6.906v-3.188h-1v3.188h1zm0-8.5v-3.188h-1v3.188h1zm0-8.5v-3.188h-1v3.188h1zm0-8.5V29h-1v1.594h1zm0-1.594c0-.623-.046-1.235-.134-1.834l-.989.145c.081.551.123 1.115.123 1.689h1zm-2.459-7.447a12.59 12.59 0 00-2.594-2.594l-.596.803c.907.675 1.712 1.48 2.387 2.387l.803-.596zm-8.207-4.92A12.594 12.594 0 00253 16.5v1c.574 0 1.138.042 1.689.123l.145-.99zM253 16.5h-1.506v1H253v-1zm-6.528 0h-3.012v1h3.012v-1zm-8.033 0h-3.013v1h3.013v-1zm-8.034 0h-3.013v1h3.013v-1zm-8.034 0h-3.013v1h3.013v-1zm-8.034 0h-3.013v1h3.013v-1zm-8.034 0h-3.013v1h3.013v-1zm-8.034 0h-3.012v1h3.012v-1zm-8.034 0h-3.012v1h3.012v-1zm-8.033 0h-3.013v1h3.013v-1zm-8.034 0h-3.013v1h3.013v-1zm-8.034 0h-3.013v1h3.013v-1zm-8.034 0h-3.013v1h3.013v-1zm-8.034 0h-3.013v1h3.013v-1zm-8.034 0h-3.013v1h3.013v-1zm-8.034 0h-3.012v1h3.012v-1zm-8.034 0h-3.012v1h3.012v-1zm-8.033 0h-3.013v1h3.013v-1zm-8.034 0h-3.013v1h3.013v-1zm-8.034 0H98.85v1h3.013v-1zm-8.034 0h-3.013v1h3.013v-1zm-8.034 0h-3.013v1h3.013v-1zm-8.034 0h-1.506v1h1.506v-1zm-1.506 0a11.51 11.51 0 01-1.688-.124l-.146.989c.603.09 1.216.135 1.834.135v-1zm-6.85-2.263a11.57 11.57 0 01-1.282-1.105l-.707.707c.437.436.902.838 1.393 1.201l.595-.803zm-1.282-1.105l-1.154-1.155-.707.707 1.154 1.155.707-.707zm-5.002-5.003L60.81 5.82l-.706.708 2.309 2.308.707-.707zm-6.157-6.157L55.809.818l-.707.707 1.155 1.155.707-.708zM55.809.818A4.499 4.499 0 0054.75.03l-.471.882c.296.158.574.363.824.613l.707-.707zM50.506.03c-.382.205-.74.467-1.06.788l.707.707a3.5 3.5 0 01.824-.613L50.506.03zm-1.06.788L48.29 1.972l.707.708 1.155-1.155-.707-.707zM44.443 5.82l-2.309 2.31.707.706 2.31-2.308-.708-.708zm-6.157 6.157l-1.154 1.155.707.707 1.154-1.155-.707-.707zm-1.154 1.155c-.402.402-.83.77-1.281 1.105l.595.803c.49-.363.956-.764 1.393-1.201l-.707-.707zm-6.444 3.244A11.51 11.51 0 0129 16.5v1c.618 0 1.23-.046 1.834-.135l-.146-.99zM29 16.5h-1.594v1H29v-1zm-6.906 0h-3.188v1h3.188v-1zm-8.5 0H12v1h1.594v-1zM55.456 1.172l.707-.708-.707.708zm-5.657 0l-.707-.708.707.708zm17.97 12.313l-.707.707.708-.707zm-30.284 0l.707.707-.707-.707zM12 16c-.647 0-1.284.047-1.907.139l.291 1.979A11.099 11.099 0 0112 18v-2zm-7.745 2.558a13.069 13.069 0 00-2.697 2.697l1.606 1.193a11.074 11.074 0 012.284-2.285l-1.193-1.605zm-5.116 8.535A13.1 13.1 0 00-1 29h2c0-.55.04-1.089.118-1.616l-1.979-.291zM-1 29v1.594h2V29h-2zm0 6.906v3.188h2v-3.188h-2zm0 8.5v3.188h2v-3.188h-2zm0 8.5v3.188h2v-3.188h-2zm0 8.5V63h2v-1.594h-2zM-1 63c0 .647.047 1.284.139 1.907l1.979-.291A11.099 11.099 0 011 63h-2zm2.558 7.745a13.066 13.066 0 002.697 2.697l1.193-1.606a11.068 11.068 0 01-2.284-2.284l-1.606 1.193zm8.535 5.116c.623.092 1.26.139 1.907.139v-2c-.55 0-1.089-.04-1.616-.118l-.291 1.979zM12 76h1.506v-2H12v2zm6.527 0h3.013v-2h-3.013v2zm8.033 0h3.013v-2H26.56v2zm8.034 0h3.012v-2h-3.012v2zm8.033 0h3.013v-2h-3.013v2zm8.033 0h3.013v-2H50.66v2zm8.034 0h3.012v-2h-3.012v2zm8.033 0h3.013v-2h-3.013v2zm8.033 0h3.013v-2H74.76v2zm8.034 0h3.012v-2h-3.012v2zm8.033 0h3.013v-2h-3.013v2zm8.033 0h3.013v-2H98.86v2zm8.034 0h3.012v-2h-3.012v2zm8.033 0h3.013v-2h-3.013v2zm8.033 0h3.013v-2h-3.013v2zm8.034 0h3.012v-2h-3.012v2zm8.033 0h3.013v-2h-3.013v2zm8.033 0h3.013v-2h-3.013v2zm8.034 0h3.012v-2h-3.012v2zm8.033 0h3.013v-2h-3.013v2zm8.033 0h3.013v-2h-3.013v2zm8.034 0h3.012v-2h-3.012v2zm8.033 0h3.013v-2h-3.013v2zm8.033 0h3.013v-2h-3.013v2zm8.034 0h3.012v-2h-3.012v2zm8.033 0h3.013v-2h-3.013v2zm8.033 0h3.013v-2h-3.013v2zm8.034 0h3.012v-2h-3.012v2zm8.033 0h3.012v-2h-3.012v2zm8.033 0h3.013v-2h-3.013v2zm8.034 0H253v-2h-1.506v2zM253 76c.647 0 1.284-.047 1.907-.139l-.291-1.979c-.527.078-1.066.118-1.616.118v2zm7.745-2.558a13.063 13.063 0 002.697-2.697l-1.606-1.193a11.052 11.052 0 01-2.284 2.284l1.193 1.606zm5.116-8.535c.092-.623.139-1.26.139-1.907h-2c0 .55-.04 1.089-.118 1.616l1.979.291zM266 63v-1.594h-2V63h2zm0-6.906v-3.188h-2v3.188h2zm0-8.5v-3.188h-2v3.188h2zm0-8.5v-3.188h-2v3.188h2zm0-8.5V29h-2v1.594h2zM266 29c0-.647-.047-1.284-.139-1.907l-1.979.291c.078.527.118 1.067.118 1.616h2zm-2.558-7.745a13.063 13.063 0 00-2.697-2.697l-1.193 1.606a11.055 11.055 0 012.284 2.284l1.606-1.193zm-8.535-5.116A13.106 13.106 0 00253 16v2c.55 0 1.089.04 1.616.118l.291-1.979zM253 16h-1.506v2H253v-2zm-6.528 0h-3.012v2h3.012v-2zm-8.033 0h-3.013v2h3.013v-2zm-8.034 0h-3.013v2h3.013v-2zm-8.034 0h-3.013v2h3.013v-2zm-8.034 0h-3.013v2h3.013v-2zm-8.034 0h-3.013v2h3.013v-2zm-8.034 0h-3.012v2h3.012v-2zm-8.034 0h-3.012v2h3.012v-2zm-8.033 0h-3.013v2h3.013v-2zm-8.034 0h-3.013v2h3.013v-2zm-8.034 0h-3.013v2h3.013v-2zm-8.034 0h-3.013v2h3.013v-2zm-8.034 0h-3.013v2h3.013v-2zm-8.034 0h-3.013v2h3.013v-2zm-8.034 0h-3.012v2h3.012v-2zm-8.034 0h-3.012v2h3.012v-2zm-8.033 0h-3.013v2h3.013v-2zm-8.034 0h-3.013v2h3.013v-2zm-8.034 0H98.85v2h3.013v-2zm-8.034 0h-3.013v2h3.013v-2zm-8.034 0h-3.013v2h3.013v-2zm-8.034 0h-1.506v2h1.506v-2zm-1.506 0c-.544 0-1.083-.04-1.614-.119l-.294 1.978c.628.093 1.266.141 1.908.141v-2zm-6.553-2.165a11.13 11.13 0 01-1.225-1.057l-1.415 1.414a13 13 0 001.449 1.25l1.191-1.607zm-1.225-1.057l-1.155-1.154-1.414 1.414 1.154 1.154 1.415-1.414zm-5.003-5.002l-2.309-2.31-1.414 1.415 2.31 2.309 1.413-1.414zm-6.157-6.157L56.163.464 54.749 1.88l1.154 1.154 1.414-1.414zM56.163.464a5.002 5.002 0 00-1.178-.874l-.943 1.763a3 3 0 01.707.526L56.163.464zM50.27-.41a5 5 0 00-1.178.874l1.414 1.415c.216-.216.454-.39.707-.526L50.27-.41zm-1.178.874L47.938 1.62l1.414 1.414 1.154-1.154L49.092.464zM44.09 5.467l-2.31 2.309 1.415 1.414 2.309-2.309-1.414-1.414zm-6.157 6.157l-1.155 1.154 1.414 1.414 1.155-1.154-1.414-1.414zm-1.155 1.154c-.384.384-.794.737-1.225 1.057l1.191 1.607c.51-.378.994-.796 1.448-1.25l-1.414-1.414zm-6.164 3.103c-.531.079-1.07.119-1.614.119v2c.642 0 1.28-.047 1.907-.14l-.293-1.979zM29 16h-1.594v2H29v-2zm-6.906 0h-3.188v2h3.188v-2zm-8.5 0H12v2h1.594v-2z" fill="#FEC830" mask="url(#path-1-inside-1)"/></svg>
